svg/heart.svg

<svg width="24" height="24" viewBox="0 0 24 24" fill="none" xmlns="http://www.w3.org/2000/svg">
<path d="M12 4.52765C9.64418 2.41689 6.02125 2.49347 3.75736 4.75736C1.41421 7.10051 1.41421 10.8995 3.75736 13.2426L10.5858 20.0711C11.3668 20.8521 12.6332 20.8521 13.4142 20.0711L20.2426 13.2426C22.5858 10.8995 22.5858 7.10051 20.2426 4.75736C17.9787 2.49347 14.3558 2.41689 12 4.52765ZM10.8284 6.17157L11.2929 6.63604C11.6834 7.02656 12.3166 7.02656 12.7071 6.63604L13.1716 6.17157C14.7337 4.60948 17.2663 4.60948 18.8284 6.17157C20.3905 7.73367 20.3905 10.2663 18.8284 11.8284L12 18.6569L5.17157 11.8284C3.60948 10.2663 3.60948 7.73367 5.17157 6.17157C6.73367 4.60948 9.26633 4.60948 10.8284 6.17157Z" fill="#0D0D0D"/>
</svg>

<svg width="24" height="24" fill="none" xmlns="http://www.w3.org/2000/svg"><path d="M12 4.528a6 6 0 00-8.243 8.715l6.829 6.828a2 2 0 002.828 0l6.829-6.828A6 6 0 0012 4.528zm-1.172 1.644l.465.464a1 1 0 001.414 0l.465-.464a4 4 0 115.656 5.656L12 18.657l-6.828-6.829a4 4 0 015.656-5.656z" fill="#0D0D0D"/></svg>
